;FLAVOR:Marlin
;TIME:13872
;Filament used: 13.1331m
;Layer height: 0.28
;MINX:32.719
;MINY:32.71
;MINZ:0.28
;MAXX:202.281
;MAXY:202.92
;MAXZ:9.8
;Generated with Cura_SteamEngine 4.8.0
M140 S60
M105
M190 S60
M104 S205
M105
M109 S205
M82 ;absolute extrusion mode
; Ender 3 Custom Start G-code
G92 E0 ; Reset Extruder
G28 ; Home all axes
G1 Z2.0 F3000 ; Move Z Axis up little to prevent scratching of Heat Bed
G1 X0.1 Y20 Z0.3 F5000.0 ; Move to start position
G1 X0.1 Y200.0 Z0.3 F1500.0 E15 ; Draw the first line
G1 X0.4 Y200.0 Z0.3 F5000.0 ; Move to side a little
G1 X0.4 Y20 Z0.3 F1500.0 E30 ; Draw the second line
G92 E0 ; Reset Extruder
G1 Z2.0 F3000 ; Move Z Axis up little to prevent scratching of Heat Bed
G1 X5 Y20 Z0.3 F5000.0 ; Move over to prevent blob squish
G92 E0
G92 E0
G1 F2700 E-5
;LAYER_COUNT:35
;LAYER:0
M107
;MESH:carter_stronglight_v5.stl
G0 F6000 X165.31 Y109.682 Z0.28
;TYPE:WALL-INNER
G1 F2700 E0
G1 F1200 X186.968 Y105.863 E1.02405
G1 X187.17 Y105.828 E1.03359
G1 X187.128 Y105.627 E1.03971
G1 X186.115 Y100.798 E1.26947
G1 X184.901 Y96.425 E1.48079
G1 X183.407 Y92.138 E1.69219
G1 X181.641 Y87.956 E1.90357
G1 X179.61 Y83.898 E2.11487
G1 X177.323 Y79.978 E2.3262
G1 X174.788 Y76.212 E2.53759
G1 X172.016 Y72.618 E2.74893
G1 X169.02 Y69.208 E2.9603
G1 X165.811 Y65.999 E3.17161
G1 X162.401 Y63.003 E3.38298
G1 X158.807 Y60.231 E3.59432
G1 X155.042 Y57.696 E3.80567
G1 X151.121 Y55.409 E4.01704
G1 X147.062 Y53.378 E4.22838
G1 X142.881 Y51.611 E4.43974
G1 X138.594 Y50.119 E4.6511
G1 X134.221 Y48.904 E4.86244
G1 X129.393 Y47.891 E5.09215
G1 X129.192 Y47.849 E5.10171
G1 X129.157 Y48.051 E5.10782
G1 X125.337 Y69.709 E6.13188
G1 X129.521 Y70.612 E6.33119
G1 X133.062 Y71.663 E6.50318
G1 X136.52 Y72.986 E6.67558
G1 X139.859 Y74.564 E6.84755
G1 X143.076 Y76.398 E7.01998
G1 X146.134 Y78.464 E7.19182
G1 X149.027 Y80.761 E7.36383
G1 X151.742 Y83.277 E7.53619
G1 X154.259 Y85.992 E7.70858
G1 X156.554 Y88.884 E7.8805
G1 X158.623 Y91.948 E8.05265
G1 X160.449 Y95.149 E8.22425
G1 X162.029 Y98.492 E8.39642
G1 X163.356 Y101.957 E8.5692
G1 X164.406 Y105.497 E8.74113
G1 X165.31 Y109.682 E8.9405
G0 F6000 X165.62 Y109.221
;TYPE:WALL-OUTER
G1 F1200 X186.694 Y105.506 E9.93692
G1 X185.726 Y100.893 E10.1564
G1 X184.519 Y96.544 E10.36656
G1 X183.034 Y92.282 E10.57672
G1 X181.278 Y88.124 E10.78689
G1 X179.258 Y84.089 E10.99701
G1 X176.984 Y80.191 E11.20714
G1 X174.463 Y76.446 E11.41736
G1 X171.707 Y72.872 E11.62751
G1 X168.728 Y69.482 E11.83765
G1 X165.537 Y66.291 E12.04778
G1 X162.147 Y63.312 E12.25792
G1 X158.573 Y60.556 E12.46808
G1 X154.829 Y58.035 E12.67825
G1 X150.931 Y55.761 E12.88839
G1 X146.895 Y53.741 E13.09854
G1 X142.737 Y51.985 E13.30872
G1 X138.475 Y50.501 E13.51886
G1 X134.126 Y49.293 E13.72903
G1 X129.514 Y48.325 E13.94847
G1 X125.798 Y69.399 E14.9449
G1 X129.616 Y70.223 E15.12677
G1 X133.2 Y71.287 E15.30086
G1 X136.677 Y72.617 E15.4742
G1 X140.044 Y74.209 E15.64763
G1 X143.279 Y76.053 E15.82102
G1 X146.374 Y78.144 E15.99494
G1 X149.286 Y80.456 E16.16808
G1 X152.025 Y82.994 E16.34195
G1 X154.564 Y85.733 E16.51586
G1 X156.874 Y88.644 E16.6889
G1 X158.962 Y91.735 E16.86259
G1 X160.811 Y94.978 E17.03642
G1 X162.398 Y98.335 E17.20932
G1 X163.73 Y101.814 E17.38279
G1 X164.795 Y105.402 E17.55706
G1 X165.62 Y109.221 E17.73899
G1 F2700 E12.73899
G0 F6000 X165.67 Y109.516
G0 X164.22 Y105.539
G0 X165.614 Y105.125
G0 X161.695 Y105.123
G0 X160.996 Y102.986
G0 X74.042 Y102.986
G0 X73.343 Y105.117
G0 X69.424 Y105.118
G0 X70.819 Y105.532
G0 X69.729 Y109.682
;TYPE:WALL-INNER
G1 F2700 E17.73899
G1 F1200 X70.635 Y105.483 E17.93902
G1 X71.684 Y101.954 E18.11045
G1 X73.002 Y98.506 E18.28233
G1 X74.589 Y95.151 E18.45515
G1 X76.42 Y91.939 E18.62731
G1 X78.483 Y88.885 E18.79892
G1 X80.779 Y85.993 E18.97086
G1 X83.296 Y83.277 E19.14329
G1 X86.007 Y80.764 E19.31542
G1 X88.903 Y78.465 E19.48759
G1 X91.959 Y76.401 E19.65931
G1 X95.174 Y74.568 E19.83163
G1 X98.522 Y72.985 E20.00408
G1 X101.976 Y71.664 E20.17627
G1 X105.516 Y70.613 E20.34822
G1 X109.701 Y69.709 E20.54759
G1 X105.882 Y48.051 E21.57163
G1 X105.847 Y47.849 E21.58118
G1 X105.646 Y47.891 E21.5873
G1 X100.817 Y48.904 E21.81705
G1 X96.444 Y50.119 E22.02839
G1 X92.157 Y51.611 E22.23976
G1 X87.976 Y53.378 E22.45111
G1 X83.918 Y55.409 E22.66242
G1 X79.997 Y57.696 E22.87378
G1 X76.232 Y60.231 E23.08513
G1 X72.638 Y63.003 E23.29648
G1 X69.227 Y65.999 E23.50788
G1 X66.018 Y69.208 E23.71919
G1 X63.022 Y72.618 E23.93056
G1 X60.25 Y76.212 E24.1419
G1 X57.715 Y79.978 E24.35329
G1 X55.428 Y83.898 E24.56462
G1 X53.397 Y87.957 E24.77596
G1 X51.631 Y92.138 E24.9873
G1 X50.138 Y96.425 E25.19868
G1 X48.923 Y100.798 E25.41002
G1 X47.911 Y105.628 E25.63981
G1 X47.869 Y105.828 E25.64932
G1 X48.07 Y105.863 E25.65541
G1 X69.729 Y109.682 E26.6795
G0 F6000 X69.419 Y109.221
;TYPE:WALL-OUTER
G1 F1200 X70.246 Y105.388 E26.86209
G1 X71.308 Y101.815 E27.03566
G1 X72.633 Y98.35 E27.2084
G1 X74.234 Y94.966 E27.38272
G1 X76.075 Y91.736 E27.55583
G1 X78.163 Y88.645 E27.72952
G1 X80.474 Y85.734 E27.90259
G1 X83.013 Y82.994 E28.07654
G1 X85.748 Y80.459 E28.25018
G1 X88.663 Y78.145 E28.42348
G1 X91.754 Y76.057 E28.59717
G1 X94.989 Y74.213 E28.77056
G1 X98.365 Y72.616 E28.94446
G1 X101.838 Y71.288 E29.1176
G1 X105.421 Y70.224 E29.29164
G1 X109.24 Y69.399 E29.47357
G1 X105.525 Y48.325 E30.47
G1 X100.912 Y49.293 E30.68948
G1 X96.563 Y50.501 E30.89965
G1 X92.301 Y51.985 E31.10979
G1 X88.144 Y53.741 E31.31992
G1 X84.108 Y55.761 E31.53008
G1 X80.21 Y58.035 E31.74021
G1 X76.466 Y60.556 E31.95039
G1 X72.892 Y63.312 E32.16054
G1 X69.501 Y66.291 E32.37072
G1 X66.31 Y69.482 E32.58085
G1 X63.331 Y72.872 E32.79099
G1 X60.575 Y76.446 E33.00115
G1 X58.054 Y80.191 E33.21136
G1 X55.78 Y84.089 E33.42149
G1 X53.76 Y88.124 E33.63161
G1 X52.005 Y92.282 E33.84176
G1 X50.52 Y96.544 E34.05192
G1 X49.312 Y100.893 E34.2621
G1 X48.345 Y105.506 E34.48157
G1 X69.419 Y109.221 E35.47799
G1 F2700 E30.47799
G0 F6000 X69.367 Y109.515
G0 X69.881 Y109.908
G0 X71.195 Y110.066
G0 X70.731 Y113.723
G0 X70.579 Y117.5
G0 X70.731 Y121.277
G0 X71.186 Y125.029
G0 X71.944 Y128.733
G0 X72.995 Y132.363
G0 X74.336 Y135.897
G0 X75.957 Y139.314
G0 X77.847 Y142.588
G0 X79.994 Y145.698
G0 X82.384 Y148.627
G0 X85.003 Y151.352
G0 X87.832 Y153.859
G0 X90.854 Y156.131
G0 X94.05 Y158.15
G0 X97.396 Y159.908
G0 X100.874 Y161.389
G0 X104.459 Y162.586
G0 X108.13 Y163.491
G0 X111.152 Y163.982
G0 X115.623 Y164.562
;TYPE:WALL-INNER
G1 F2700 E35.47799
G1 F1200 X119.416 Y164.562 E35.65461
G1 X123.196 Y164.257 E35.83119
G1 X126.94 Y163.648 E36.00782
G1 X130.623 Y162.741 E36.18444
G1 X134.221 Y161.539 E36.36108
G1 X137.711 Y160.053 E36.53771
G1 X141.069 Y158.29 E36.71431
G1 X144.275 Y156.263 E36.89093
G1 X147.308 Y153.984 E37.06758
G1 X150.147 Y151.469 E37.24419
G1 X152.775 Y148.733 E37.42084
G1 X155.173 Y145.794 E37.59747
G1 X157.328 Y142.674 E37.77403
G1 X159.224 Y139.389 E37.95065
G1 X160.85 Y135.961 E38.12732
G1 X162.196 Y132.415 E38.30393
G1 X163.251 Y128.772 E38.48053
G1 X164.01 Y125.055 E38.65718
G1 X164.467 Y121.29 E38.83378
G1 X164.619 Y117.5 E39.0104
G1 X164.467 Y113.71 E39.18702
G1 X164.01 Y109.945 E39.36362
G1 X163.251 Y106.228 E39.54027
G1 X162.196 Y102.585 E39.71688
G1 X160.85 Y99.039 E39.89349
G1 X159.224 Y95.611 E40.07016
G1 X157.328 Y92.326 E40.24677
G1 X155.173 Y89.206 E40.42334
G1 X152.775 Y86.267 E40.59996
G1 X150.147 Y83.531 E40.77661
G1 X147.308 Y81.016 E40.95322
G1 X144.275 Y78.737 E41.12988
G1 X141.069 Y76.71 E41.3065
G1 X137.711 Y74.947 E41.4831
G1 X134.221 Y73.461 E41.65972
G1 X130.623 Y72.259 E41.83636
G1 X126.94 Y71.352 E42.01298
G1 X123.196 Y70.743 E42.18961
G1 X119.416 Y70.438 E42.3662
G1 X115.623 Y70.438 E42.54281
G1 X111.842 Y70.743 E42.71945
G1 X108.098 Y71.352 E42.89607
G1 X104.415 Y72.259 E43.07269
G1 X100.817 Y73.461 E43.24933
G1 X97.327 Y74.947 E43.42596
G1 X93.969 Y76.71 E43.60256
G1 X90.763 Y78.737 E43.77918
G1 X87.731 Y81.016 E43.9558
G1 X84.892 Y83.531 E44.13241
G1 X82.263 Y86.267 E44.30909
G1 X79.865 Y89.206 E44.48572
G1 X77.711 Y92.326 E44.66226
G1 X75.815 Y95.611 E44.83887
G1 X74.188 Y99.039 E45.01556
G1 X72.842 Y102.585 E45.19217
G1 X71.787 Y106.228 E45.36877
G1 X71.028 Y109.945 E45.54542
G1 X70.571 Y113.71 E45.72202
G1 X70.419 Y117.5 E45.89864
G1 X70.571 Y121.29 E46.07526
G1 X71.028 Y125.055 E46.25186
G1 X71.787 Y128.772 E46.42852
G1 X72.842 Y132.415 E46.60512
G1 X74.188 Y135.961 E46.78173
G1 X75.815 Y139.389 E46.95842
G1 X77.711 Y142.674 E47.13503
G1 X79.865 Y145.794 E47.31157
G1 X82.263 Y148.733 E47.4882
G1 X84.892 Y151.469 E47.66488
G1 X87.731 Y153.984 E47.84149
G1 X90.763 Y156.263 E48.01811
G1 X93.969 Y158.29 E48.19473
G1 X97.327 Y160.053 E48.37133
G1 X100.817 Y161.539 E48.54795
G1 X104.415 Y162.741 E48.72459
G1 X108.098 Y163.648 E48.90121
G1 X111.842 Y164.257 E49.07784
G1 X115.623 Y164.562 E49.25447
G0 F6000 X115.639 Y164.162
;TYPE:WALL-OUTER
G1 F1200 X119.4 Y164.162 E49.4296
G1 X123.148 Y163.86 E49.60469
G1 X126.86 Y163.256 E49.77981
G1 X130.512 Y162.356 E49.95495
G1 X134.079 Y161.165 E50.13006
G1 X137.539 Y159.691 E50.30518
G1 X140.869 Y157.943 E50.4803
G1 X144.048 Y155.934 E50.65541
G1 X147.055 Y153.674 E50.83057
G1 X149.87 Y151.18 E51.00569
G1 X152.475 Y148.468 E51.18079
G1 X154.853 Y145.554 E51.35593
G1 X156.99 Y142.46 E51.53102
G1 X158.87 Y139.203 E51.70613
G1 X160.482 Y135.804 E51.8813
G1 X161.816 Y132.288 E52.05641
G1 X162.862 Y128.676 E52.23151
G1 X163.615 Y124.991 E52.40664
G1 X164.068 Y121.258 E52.58174
G1 X164.219 Y117.5 E52.75687
G1 X164.068 Y113.742 E52.932
G1 X163.615 Y110.009 E53.1071
G1 X162.862 Y106.324 E53.28224
G1 X161.816 Y102.712 E53.45734
G1 X160.482 Y99.196 E53.63244
G1 X158.87 Y95.797 E53.80761
G1 X156.99 Y92.54 E53.98273
G1 X154.853 Y89.446 E54.15782
G1 X152.475 Y86.532 E54.33295
G1 X149.87 Y83.82 E54.50806
G1 X147.055 Y81.326 E54.68318
G1 X144.048 Y79.066 E54.85833
G1 X140.869 Y77.057 E55.03344
G1 X137.539 Y75.309 E55.20857
G1 X134.079 Y73.835 E55.38369
G1 X130.512 Y72.644 E55.5588
G1 X126.86 Y71.744 E55.73394
G1 X123.148 Y71.14 E55.90906
G1 X119.4 Y70.838 E56.08415
G1 X115.639 Y70.838 E56.25927
G1 X111.89 Y71.14 E56.43441
G1 X108.178 Y71.744 E56.60953
G1 X104.526 Y72.644 E56.78467
G1 X100.959 Y73.835 E56.95978
G1 X97.499 Y75.309 E57.1349
G1 X94.169 Y77.057 E57.31002
G1 X90.99 Y79.066 E57.48513
G1 X87.984 Y81.326 E57.66025
G1 X85.169 Y83.82 E57.83537
G1 X82.563 Y86.532 E58.01051
G1 X80.185 Y89.446 E58.18564
G1 X78.049 Y92.54 E58.36071
G1 X76.169 Y95.797 E58.53582
G1 X74.556 Y99.196 E58.71101
G1 X73.222 Y102.712 E58.88612
G1 X72.176 Y106.324 E59.06122
G1 X71.423 Y110.009 E59.23635
G1 X70.97 Y113.742 E59.41145
G1 X70.819 Y117.5 E59.58658
G1 X70.97 Y121.258 E59.76171
G1 X71.423 Y124.991 E59.93681
G1 X72.176 Y128.676 E60.11195
G1 X73.222 Y132.288 E60.28705
G1 X74.556 Y135.804 E60.46215
G1 X76.169 Y139.203 E60.63734
G1 X78.049 Y142.46 E60.81245
G1 X80.185 Y145.554 E60.98752
G1 X82.563 Y148.468 E61.16266
G1 X85.169 Y151.18 E61.33779
G1 X87.984 Y153.674 E61.51291
G1 X90.99 Y155.934 E61.68803
G1 X94.169 Y157.943 E61.86314
G1 X97.499 Y159.691 E62.03826
G1 X100.959 Y161.165 E62.21339
G1 X104.526 Y162.356 E62.3885
G1 X108.178 Y163.256 E62.56364
G1 X111.89 Y163.86 E62.73876
G1 X115.639 Y164.162 E62.91389
G0 F6000 X115.622 Y164.601
G1 F2700 E57.91389
G0 F6000 X119.424 Y164.753
G0 X119.366 Y163.298
G0 X126.782 Y166.262
G0 X125.111 Y165.139
G0 X129.157 Y186.949
;TYPE:WALL-INNER
G1 F2700 E62.91389
G1 F1200 X129.192 Y187.151 E62.92344
G1 X129.393 Y187.109 E62.92956
G1 X134.221 Y186.096 E63.15927
G1 X138.594 Y184.881 E63.3706
G1 X142.881 Y183.389 E63.58197
G1 X147.062 Y181.622 E63.79333
G1 X151.121 Y179.591 E64.00467
G1 X155.042 Y177.304 E64.21604
G1 X158.807 Y174.769 E64.42739
G1 X162.401 Y171.997 E64.63873
G1 X165.811 Y169.001 E64.85009
G1 X169.02 Y165.792 E65.06141
G1 X172.016 Y162.382 E65.27278
G1 X174.788 Y158.788 E65.48412
G1 X177.323 Y155.022 E65.69551
G1 X179.61 Y151.102 E65.90684
G1 X181.641 Y147.044 E66.11814
G1 X183.407 Y142.862 E66.32952
G1 X184.901 Y138.575 E66.54092
G1 X186.115 Y134.202 E66.75224
G1 X187.128 Y129.373 E66.98199
G1 X187.17 Y129.172 E66.99156
G1 X186.968 Y129.137 E66.99767
G1 X165.31 Y125.318 E68.02171
G1 X164.407 Y129.502 E68.22102
G1 X163.356 Y133.043 E68.39302
G1 X162.033 Y136.501 E68.56542
G1 X160.452 Y139.846 E68.7377
G1 X158.627 Y143.046 E68.90923
G1 X156.555 Y146.115 E69.08166
G1 X154.26 Y149.007 E69.25357
G1 X151.742 Y151.723 E69.42603
G1 X149.031 Y154.236 E69.59816
G1 X146.135 Y156.535 E69.77033
G1 X143.085 Y158.596 E69.94174
G1 X139.86 Y160.435 E70.11461
G1 X136.525 Y162.011 E70.28636
G1 X133.063 Y163.336 E70.45897
G1 X129.522 Y164.387 E70.63097
G1 X125.337 Y165.291 E70.83033
G1 X129.157 Y186.949 E71.85439
G0 F6000 X129.514 Y186.675
;TYPE:WALL-OUTER
G1 F1200 X134.126 Y185.707 E72.07382
G1 X138.475 Y184.499 E72.28399
G1 X142.737 Y183.015 E72.49414
G1 X146.895 Y181.259 E72.70431
G1 X150.931 Y179.239 E72.91447
G1 X154.829 Y176.965 E73.1246
G1 X158.573 Y174.444 E73.33477
G1 X162.147 Y171.688 E73.54493
G1 X165.537 Y168.709 E73.75507
G1 X168.728 Y165.518 E73.9652
G1 X171.707 Y162.128 E74.17534
G1 X174.463 Y158.554 E74.3855
G1 X176.984 Y154.809 E74.59571
G1 X179.258 Y150.911 E74.80585
G1 X181.278 Y146.876 E75.01596
G1 X183.034 Y142.718 E75.22613
G1 X184.519 Y138.456 E75.43629
G1 X185.726 Y134.107 E75.64645
G1 X186.694 Y129.494 E75.86593
G1 X165.62 Y125.779 E76.86236
G1 X164.796 Y129.597 E77.04423
G1 X163.732 Y133.181 E77.21832
G1 X162.402 Y136.658 E77.39166
G1 X160.812 Y140.021 E77.56488
G1 X158.966 Y143.259 E77.73843
G1 X156.875 Y146.355 E77.91239
G1 X154.565 Y149.266 E78.08544
G1 X152.025 Y152.006 E78.25941
G1 X149.29 Y154.541 E78.43305
G1 X146.375 Y156.855 E78.60636
G1 X143.285 Y158.943 E78.78001
G1 X140.045 Y160.79 E78.95367
G1 X136.682 Y162.38 E79.12688
G1 X133.201 Y163.712 E79.30044
G1 X129.617 Y164.776 E79.47452
G1 X125.798 Y165.601 E79.65645
G1 X129.514 Y186.675 E80.65288
G1 F2700 E75.65288
G0 F6000 X129.218 Y186.725
G0 X128.248 Y183.005
G0 X129.7 Y182.749
G0 X105.985 Y179.08
G0 X107.438 Y179.335
G0 X105.882 Y186.949
;TYPE:WALL-INNER
G1 F2700 E80.65288
G1 F1200 X109.701 Y165.291 E81.67693
G1 X105.517 Y164.388 E81.87624
G1 X101.977 Y163.337 E82.04819
G1 X98.523 Y162.016 E82.22038
G1 X95.175 Y160.433 E82.39283
G1 X91.958 Y158.599 E82.56526
G1 X88.904 Y156.536 E82.73687
G1 X86.008 Y154.237 E82.90904
G1 X83.296 Y151.723 E83.08124
G1 X80.78 Y149.008 E83.2536
G1 X78.484 Y146.116 E83.42554
G1 X76.421 Y143.061 E83.59719
G1 X74.588 Y139.846 E83.76952
G1 X73.003 Y136.494 E83.94217
G1 X71.682 Y133.039 E84.11441
G1 X70.632 Y129.503 E84.28617
G1 X69.729 Y125.318 E84.48552
G1 X48.07 Y129.137 E85.50961
G1 X47.869 Y129.172 E85.51911
G1 X47.911 Y129.372 E85.52521
G1 X48.923 Y134.202 E85.755
G1 X50.138 Y138.575 E85.96634
G1 X51.631 Y142.862 E86.17772
G1 X53.397 Y147.043 E86.38906
G1 X55.428 Y151.102 E86.6004
G1 X57.715 Y155.022 E86.81173
G1 X60.25 Y158.788 E87.02312
G1 X63.022 Y162.382 E87.23446
G1 X66.018 Y165.792 E87.44583
G1 X69.227 Y169.001 E87.65714
G1 X72.638 Y171.997 E87.86854
G1 X76.232 Y174.769 E88.07989
G1 X79.997 Y177.304 E88.29124
G1 X83.918 Y179.591 E88.5026
G1 X87.976 Y181.622 E88.71391
G1 X92.157 Y183.389 E88.92526
G1 X96.444 Y184.881 E89.13663
G1 X100.817 Y186.096 E89.34797
G1 X105.646 Y187.109 E89.57772
G1 X105.847 Y187.151 E89.58728
G1 X105.882 Y186.949 E89.59339
G0 F6000 X105.525 Y186.675
;TYPE:WALL-OUTER
G1 F1200 X109.24 Y165.601 E90.58982
G1 X105.422 Y164.777 E90.77169
G1 X101.839 Y163.713 E90.94573
G1 X98.366 Y162.385 E91.11887
G1 X94.99 Y160.788 E91.29277
G1 X91.755 Y158.944 E91.46616
G1 X88.664 Y156.856 E91.63985
G1 X85.749 Y154.542 E91.81315
G1 X83.013 Y152.006 E91.98686
G1 X80.475 Y149.267 E92.16074
G1 X78.164 Y146.356 E92.33381
G1 X76.076 Y143.265 E92.5075
G1 X74.233 Y140.031 E92.68083
G1 X72.634 Y136.651 E92.85494
G1 X71.308 Y133.182 E93.02787
G1 X70.243 Y129.598 E93.20196
G1 X69.419 Y125.779 E93.38389
G1 X48.345 Y129.494 E94.38031
G1 X49.312 Y134.107 E94.59978
G1 X50.52 Y138.456 E94.80995
G1 X52.005 Y142.718 E95.02011
G1 X53.76 Y146.876 E95.23027
G1 X55.78 Y150.911 E95.44038
G1 X58.054 Y154.809 E95.65052
G1 X60.575 Y158.554 E95.86073
G1 X63.331 Y162.128 E96.07088
